src/icons/svgs/24/linkedin.svg

<svg width="24" height="24" viewBox="0 0 24 24" xmlns="http://www.w3.org/2000/svg">
    <path d="M20.25 3H3.75C3.3 3 3 3.3 3 3.75v16.5c0 .45.3.75.75.75h16.5c.45 0 .75-.3.75-.75V3.75c0-.45-.3-.75-.75-.75zM8.325 18.375H5.7V9.75h2.7v8.625h-.075zM6.975 8.55A1.584 1.584 0 0 1 5.4 6.975c0-.825.675-1.575 1.575-1.575.825 0 1.575.675 1.575 1.575 0 .9-.675 1.575-1.575 1.575zm11.4 9.825h-2.7v-4.2c0-.975 0-2.25-1.35-2.25-1.425 0-1.575 1.05-1.575 2.175v4.275h-2.7V9.75h2.55v1.2c.375-.675 1.2-1.35 2.55-1.35 2.7 0 3.225 1.8 3.225 4.125v4.65z"/>
</svg>

<svg width="24" height="24" viewBox="0 0 24 24" fill="none" xmlns="http://www.w3.org/2000/svg">
<path d="M20.25 3H3.75C3.3 3 3 3.3 3 3.75V20.25C3 20.7 3.3 21 3.75 21H20.25C20.7 21 21 20.7 21 20.25V3.75C21 3.3 20.7 3 20.25 3ZM8.325 18.375H5.7V9.75H8.4V18.375H8.325ZM6.975 8.55C6.15 8.55 5.4 7.875 5.4 6.975C5.4 6.15 6.075 5.4 6.975 5.4C7.8 5.4 8.55 6.075 8.55 6.975C8.55 7.875 7.875 8.55 6.975 8.55ZM18.375 18.375H15.675V14.175C15.675 13.2 15.675 11.925 14.325 11.925C12.9 11.925 12.75 12.975 12.75 14.1V18.375H10.05V9.75H12.6V10.95C12.975 10.275 13.8 9.6 15.15 9.6C17.85 9.6 18.375 11.4 18.375 13.725V18.375Z" fill="black"/>
</svg>
